X:130
T:Trip to White Conduit
M:2/4
L:1/8
B:Thompson's Compleat Collection of 200 Favourite Country Dances, vol. 1 (London, 1757)
Z:Transcribed and edited by Flynn Titford-Mock, 2007
Z:abc's:AK/Fiddler's Companion
K:A
E|ABcA|B2 EB|c2 Ac|B2 EB|c2 Ac|defd|cAEG|A2 A,:|
|:A|cdef|e2 ae|"tr"f2 df|e2 ae|"tr"f2 af|e2 ca|fedc|"tr"B2 E2|
ABcA|B2 EB|cBcA|B2 EB|c2 Ac|defa|edcB|A2 A,:|

